flaticon/gastronomy/flour-1.svg

<svg xmlns="http://www.w3.org/2000/svg" width="32" height="32" viewBox="0 0 24 24">
    <path d="M20.945312 20.726562C20.945312 20.96875 20.75 21.164062 20.507812 21.164062 20.269531 21.164062 20.074219 20.96875 20.074219 20.726562 20.074219 20.484375 20.269531 20.289062 20.507812 20.289062 20.75 20.289062 20.945312 20.484375 20.945312 20.726562zM20.074219 19.417969C20.074219 19.660156 19.878906 19.855469 19.636719 19.855469 19.394531 19.855469 19.199219 19.660156 19.199219 19.417969 19.199219 19.175781 19.394531 18.980469 19.636719 18.980469 19.878906 18.980469 20.074219 19.175781 20.074219 19.417969zM19.199219 18.109375C19.199219 18.351562 19.003906 18.546875 18.761719 18.546875 18.523438 18.546875 18.328125 18.351562 18.328125 18.109375 18.328125 17.867188 18.523438 17.671875 18.761719 17.671875 19.003906 17.671875 19.199219 17.867188 19.199219 18.109375zM20.945312 18.109375C20.945312 18.351562 20.75 18.546875 20.507812 18.546875 20.269531 18.546875 20.074219 18.351562 20.074219 18.109375 20.074219 17.867188 20.269531 17.671875 20.507812 17.671875 20.75 17.671875 20.945312 17.867188 20.945312 18.109375zM18.328125 16.800781C18.328125 17.039062 18.132812 17.238281 17.890625 17.238281 17.648438 17.238281 17.453125 17.039062 17.453125 16.800781 17.453125 16.558594 17.648438 16.363281 17.890625 16.363281 18.132812 16.363281 18.328125 16.558594 18.328125 16.800781zM20.074219 16.800781C20.074219 17.039062 19.878906 17.238281 19.636719 17.238281 19.394531 17.238281 19.199219 17.039062 19.199219 16.800781 19.199219 16.558594 19.394531 16.363281 19.636719 16.363281 19.878906 16.363281 20.074219 16.558594 20.074219 16.800781zM17.453125 15.492188C17.453125 15.730469 17.257812 15.925781 17.019531 15.925781 16.777344 15.925781 16.582031 15.730469 16.582031 15.492188 16.582031 15.25 16.777344 15.054688 17.019531 15.054688 17.257812 15.054688 17.453125 15.25 17.453125 15.492188zM19.199219 15.492188C19.199219 15.730469 19.003906 15.925781 18.761719 15.925781 18.523438 15.925781 18.328125 15.730469 18.328125 15.492188 18.328125 15.25 18.523438 15.054688 18.761719 15.054688 19.003906 15.054688 19.199219 15.25 19.199219 15.492188zM21.816406 22.035156C21.816406 22.277344 21.621094 22.472656 21.382812 22.472656 21.140625 22.472656 20.945312 22.277344 20.945312 22.035156 20.945312 21.796875 21.140625 21.601562 21.382812 21.601562 21.621094 21.601562 21.816406 21.796875 21.816406 22.035156zM20.074219 22.035156C20.074219 22.277344 19.878906 22.472656 19.636719 22.472656 19.394531 22.472656 19.199219 22.277344 19.199219 22.035156 19.199219 21.796875 19.394531 21.601562 19.636719 21.601562 19.878906 21.601562 20.074219 21.796875 20.074219 22.035156zM19.199219 20.726562C19.199219 20.96875 19.003906 21.164062 18.761719 21.164062 18.523438 21.164062 18.328125 20.96875 18.328125 20.726562 18.328125 20.484375 18.523438 20.289062 18.761719 20.289062 19.003906 20.289062 19.199219 20.484375 19.199219 20.726562zM18.328125 19.417969C18.328125 19.660156 18.132812 19.855469 17.890625 19.855469 17.648438 19.855469 17.453125 19.660156 17.453125 19.417969 17.453125 19.175781 17.648438 18.980469 17.890625 18.980469 18.132812 18.980469 18.328125 19.175781 18.328125 19.417969zM17.453125 18.109375C17.453125 18.351562 17.257812 18.546875 17.019531 18.546875 16.777344 18.546875 16.582031 18.351562 16.582031 18.109375 16.582031 17.867188 16.777344 17.671875 17.019531 17.671875 17.257812 17.671875 17.453125 17.867188 17.453125 18.109375zM16.582031 16.800781C16.582031 17.039062 16.386719 17.238281 16.144531 17.238281 15.90625 17.238281 15.710938 17.039062 15.710938 16.800781 15.710938 16.558594 15.90625 16.363281 16.144531 16.363281 16.386719 16.363281 16.582031 16.558594 16.582031 16.800781zM17.453125 20.726562C17.453125 20.96875 17.257812 21.164062 17.019531 21.164062 16.777344 21.164062 16.582031 20.96875 16.582031 20.726562 16.582031 20.484375 16.777344 20.289062 17.019531 20.289062 17.257812 20.289062 17.453125 20.484375 17.453125 20.726562zM16.582031 19.417969C16.582031 19.660156 16.386719 19.855469 16.144531 19.855469 15.90625 19.855469 15.710938 19.660156 15.710938 19.417969 15.710938 19.175781 15.90625 18.980469 16.144531 18.980469 16.386719 18.980469 16.582031 19.175781 16.582031 19.417969zM15.710938 18.109375C15.710938 18.351562 15.515625 18.546875 15.273438 18.546875 15.03125 18.546875 14.835938 18.351562 14.835938 18.109375 14.835938 17.867188 15.03125 17.671875 15.273438 17.671875 15.515625 17.671875 15.710938 17.867188 15.710938 18.109375zM18.328125 22.035156C18.328125 22.277344 18.132812 22.472656 17.890625 22.472656 17.648438 22.472656 17.453125 22.277344 17.453125 22.035156 17.453125 21.796875 17.648438 21.601562 17.890625 21.601562 18.132812 21.601562 18.328125 21.796875 18.328125 22.035156zM16.582031 22.035156C16.582031 22.277344 16.386719 22.472656 16.144531 22.472656 15.90625 22.472656 15.710938 22.277344 15.710938 22.035156 15.710938 21.796875 15.90625 21.601562 16.144531 21.601562 16.386719 21.601562 16.582031 21.796875 16.582031 22.035156zM15.710938 20.726562C15.710938 20.96875 15.515625 21.164062 15.273438 21.164062 15.03125 21.164062 14.835938 20.96875 14.835938 20.726562 14.835938 20.484375 15.03125 20.289062 15.273438 20.289062 15.515625 20.289062 15.710938 20.484375 15.710938 20.726562zM14.835938 19.417969C14.835938 19.660156 14.640625 19.855469 14.398438 19.855469 14.160156 19.855469 13.964844 19.660156 13.964844 19.417969 13.964844 19.175781 14.160156 18.980469 14.398438 18.980469 14.640625 18.980469 14.835938 19.175781 14.835938 19.417969zM13.964844 20.726562C13.964844 20.96875 13.769531 21.164062 13.527344 21.164062 13.285156 21.164062 13.089844 20.96875 13.089844 20.726562 13.089844 20.484375 13.285156 20.289062 13.527344 20.289062 13.769531 20.289062 13.964844 20.484375 13.964844 20.726562zM14.835938 22.035156C14.835938 22.277344 14.640625 22.472656 14.398438 22.472656 14.160156 22.472656 13.964844 22.277344 13.964844 22.035156 13.964844 21.796875 14.160156 21.601562 14.398438 21.601562 14.640625 21.601562 14.835938 21.796875 14.835938 22.035156zM13.089844 22.035156C13.089844 22.277344 12.894531 22.472656 12.65625 22.472656 12.414062 22.472656 12.21875 22.277344 12.21875 22.035156 12.21875 21.796875 12.414062 21.601562 12.65625 21.601562 12.894531 21.601562 13.089844 21.796875 13.089844 22.035156zM13.089844 22.035156"/>
    <path d="M 23.289062 19.9375 C 22.847656 19.386719 22.226562 18.378906 21.628906 17.402344 C 21 16.378906 20.40625 15.410156 19.949219 14.847656 C 19.238281 13.96875 18.367188 13.433594 17.453125 13.328125 L 17.453125 0.65625 C 17.453125 0.414062 17.257812 0.21875 17.019531 0.21875 L 3.492188 0.21875 C 3.492188 0.21875 3.488281 0.21875 3.488281 0.21875 C 3.484375 0.21875 3.484375 0.21875 3.480469 0.21875 L 0.4375 0.21875 C 0.195312 0.21875 0 0.414062 0 0.65625 L 0 20.726562 C 0 20.902344 0.105469 21.058594 0.265625 21.128906 L 3.308594 22.4375 C 3.363281 22.460938 3.421875 22.472656 3.480469 22.472656 C 3.484375 22.472656 3.484375 22.472656 3.488281 22.472656 C 3.492188 22.472656 3.492188 22.472656 3.492188 22.472656 L 10.242188 22.472656 C 10.265625 22.585938 10.300781 22.695312 10.355469 22.800781 C 10.582031 23.25 11.164062 23.78125 12.648438 23.78125 L 20.574219 23.78125 C 22.21875 23.78125 23.410156 23.273438 23.832031 22.382812 C 24.175781 21.664062 23.984375 20.792969 23.289062 19.9375 Z M 3.042969 21.375 L 0.871094 20.441406 L 0.871094 1.089844 L 3.042969 1.089844 Z M 3.929688 1.089844 L 16.582031 1.089844 L 16.582031 13.351562 C 16.464844 13.371094 16.347656 13.398438 16.234375 13.433594 C 16.203125 13.445312 16.171875 13.457031 16.140625 13.464844 C 16.054688 13.496094 15.964844 13.527344 15.878906 13.5625 C 15.835938 13.582031 15.792969 13.605469 15.75 13.625 C 15.675781 13.660156 15.601562 13.699219 15.53125 13.738281 C 15.488281 13.765625 15.441406 13.792969 15.398438 13.820312 C 15.328125 13.863281 15.261719 13.910156 15.195312 13.957031 C 15.152344 13.988281 15.109375 14.019531 15.066406 14.054688 C 15 14.105469 14.933594 14.164062 14.871094 14.21875 C 14.832031 14.253906 14.789062 14.289062 14.75 14.328125 C 14.683594 14.394531 14.617188 14.464844 14.550781 14.535156 C 14.519531 14.570312 14.484375 14.605469 14.453125 14.640625 C 14.355469 14.753906 14.265625 14.867188 14.175781 14.992188 C 13.78125 15.535156 13.304688 16.355469 12.792969 17.261719 C 12.6875 17.445312 12.582031 17.632812 12.472656 17.824219 C 12.277344 18.175781 12.078125 18.527344 11.882812 18.863281 C 11.480469 19.566406 11.09375 20.207031 10.789062 20.632812 C 10.78125 20.640625 10.777344 20.648438 10.773438 20.65625 C 10.710938 20.742188 10.65625 20.828125 10.601562 20.910156 C 10.585938 20.9375 10.574219 20.960938 10.558594 20.988281 C 10.519531 21.054688 10.484375 21.125 10.449219 21.191406 C 10.4375 21.21875 10.425781 21.242188 10.414062 21.269531 C 10.382812 21.335938 10.355469 21.402344 10.332031 21.46875 C 10.324219 21.496094 10.3125 21.519531 10.304688 21.542969 C 10.300781 21.5625 10.292969 21.582031 10.285156 21.601562 L 3.929688 21.601562 Z M 12.648438 22.910156 C 11.847656 22.910156 11.292969 22.726562 11.132812 22.40625 C 11.132812 22.402344 11.132812 22.402344 11.132812 22.402344 C 11.257812 22.328125 11.34375 22.195312 11.34375 22.035156 C 11.34375 21.898438 11.277344 21.78125 11.179688 21.703125 C 11.183594 21.683594 11.1875 21.667969 11.195312 21.652344 C 11.203125 21.640625 11.207031 21.628906 11.214844 21.613281 C 11.242188 21.554688 11.273438 21.492188 11.3125 21.429688 C 11.320312 21.410156 11.328125 21.394531 11.339844 21.378906 C 11.386719 21.300781 11.4375 21.222656 11.492188 21.144531 C 11.507812 21.125 11.523438 21.101562 11.539062 21.082031 C 11.609375 21.128906 11.691406 21.164062 11.78125 21.164062 C 12.023438 21.164062 12.21875 20.96875 12.21875 20.726562 C 12.21875 20.570312 12.132812 20.441406 12.007812 20.363281 C 12.128906 20.167969 12.25 19.964844 12.378906 19.75 C 12.453125 19.8125 12.546875 19.855469 12.65625 19.855469 C 12.894531 19.855469 13.089844 19.660156 13.089844 19.417969 C 13.089844 19.230469 12.96875 19.074219 12.804688 19.011719 C 12.835938 18.949219 12.875 18.890625 12.90625 18.828125 C 12.996094 18.667969 13.085938 18.511719 13.175781 18.355469 C 13.253906 18.46875 13.378906 18.546875 13.527344 18.546875 C 13.769531 18.546875 13.964844 18.351562 13.964844 18.109375 C 13.964844 17.878906 13.785156 17.695312 13.558594 17.679688 C 13.703125 17.421875 13.847656 17.167969 13.988281 16.925781 C 14.042969 17.105469 14.203125 17.238281 14.398438 17.238281 C 14.640625 17.238281 14.835938 17.039062 14.835938 16.800781 C 14.835938 16.558594 14.640625 16.363281 14.398438 16.363281 C 14.367188 16.363281 14.339844 16.375 14.3125 16.382812 C 14.507812 16.0625 14.6875 15.777344 14.847656 15.550781 C 14.878906 15.761719 15.054688 15.925781 15.273438 15.925781 C 15.511719 15.925781 15.710938 15.730469 15.710938 15.492188 C 15.710938 15.25 15.511719 15.054688 15.273438 15.054688 C 15.265625 15.054688 15.261719 15.058594 15.257812 15.058594 C 15.375 14.9375 15.492188 14.824219 15.617188 14.726562 C 15.699219 14.664062 15.78125 14.609375 15.863281 14.554688 C 15.871094 14.550781 15.878906 14.542969 15.886719 14.539062 C 16.25 14.316406 16.636719 14.195312 17.03125 14.183594 C 17.050781 14.183594 17.070312 14.179688 17.089844 14.179688 C 17.863281 14.179688 18.636719 14.609375 19.273438 15.394531 C 19.691406 15.914062 20.296875 16.902344 20.886719 17.859375 C 21.136719 18.269531 21.394531 18.683594 21.640625 19.074219 C 21.566406 19.019531 21.480469 18.980469 21.382812 18.980469 C 21.140625 18.980469 20.945312 19.175781 20.945312 19.417969 C 20.945312 19.660156 21.140625 19.855469 21.382812 19.855469 C 21.621094 19.855469 21.816406 19.660156 21.816406 19.417969 C 21.816406 19.386719 21.804688 19.355469 21.800781 19.324219 C 22.074219 19.75 22.332031 20.125 22.558594 20.417969 C 22.480469 20.339844 22.375 20.289062 22.253906 20.289062 C 22.015625 20.289062 21.816406 20.488281 21.816406 20.726562 C 21.816406 20.96875 22.015625 21.164062 22.253906 21.164062 C 22.496094 21.164062 22.691406 20.96875 22.691406 20.726562 C 22.691406 20.617188 22.644531 20.515625 22.578125 20.4375 C 22.589844 20.453125 22.601562 20.472656 22.613281 20.484375 C 22.9375 20.886719 23.109375 21.269531 23.121094 21.601562 C 22.882812 21.605469 22.691406 21.796875 22.691406 22.035156 C 22.691406 22.144531 22.734375 22.238281 22.800781 22.316406 C 22.382812 22.691406 21.59375 22.910156 20.574219 22.910156 Z M 12.648438 22.910156"/>
    <path d="M9.164062 11.226562C9.40625 11.226562 9.601562 11.03125 9.601562 10.789062L9.601562 9.195312C9.601562 9.128906 9.59375 9.066406 9.589844 9L9.726562 9.136719C9.808594 9.21875 9.921875 9.261719 10.035156 9.261719 10.144531 9.261719 10.257812 9.21875 10.34375 9.136719L10.484375 8.992188C10.476562 9.058594 10.472656 9.125 10.472656 9.195312L10.472656 10.789062C10.472656 11.03125 10.667969 11.226562 10.910156 11.226562L12.503906 11.226562C14.03125 11.226562 15.273438 9.984375 15.273438 8.460938L15.273438 6.863281C15.273438 6.621094 15.078125 6.425781 14.835938 6.425781L13.238281 6.425781C12.878906 6.425781 12.535156 6.496094 12.21875 6.625 12.40625 5.738281 12.15625 4.777344 11.46875 4.09375L10.339844 2.964844C10.171875 2.792969 9.894531 2.792969 9.722656 2.964844L8.59375 4.09375C7.910156 4.777344 7.660156 5.738281 7.847656 6.621094 7.53125 6.496094 7.191406 6.425781 6.832031 6.425781L5.238281 6.425781C4.996094 6.425781 4.800781 6.621094 4.800781 6.863281L4.800781 8.460938C4.800781 9.984375 6.042969 11.226562 7.566406 11.226562zM14.398438 7.300781L14.398438 8.460938C14.398438 9.503906 13.550781 10.355469 12.503906 10.355469L11.34375 10.355469 11.34375 9.195312C11.34375 8.148438 12.195312 7.300781 13.238281 7.300781zM9.210938 4.710938L10.03125 3.890625 10.851562 4.710938C11.589844 5.449219 11.589844 6.652344 10.851562 7.390625L10.03125 8.210938 9.210938 7.390625C8.472656 6.652344 8.472656 5.449219 9.210938 4.710938zM5.671875 8.460938L5.671875 7.300781 6.832031 7.300781C7.878906 7.300781 8.726562 8.148438 8.726562 9.195312L8.726562 10.355469 7.566406 10.355469C6.523438 10.355469 5.671875 9.503906 5.671875 8.460938zM13.964844 14.183594C13.964844 13.941406 13.769531 13.746094 13.527344 13.746094L6.980469 13.746094C6.742188 13.746094 6.546875 13.941406 6.546875 14.183594 6.546875 14.421875 6.742188 14.617188 6.980469 14.617188L13.527344 14.617188C13.769531 14.617188 13.964844 14.421875 13.964844 14.183594zM8.289062 12.4375C8.050781 12.4375 7.855469 12.632812 7.855469 12.871094 7.855469 13.113281 8.050781 13.308594 8.289062 13.308594L12.65625 13.308594C12.894531 13.308594 13.089844 13.113281 13.089844 12.871094 13.089844 12.632812 12.894531 12.4375 12.65625 12.4375zM13.089844 15.492188C13.089844 15.25 12.894531 15.054688 12.65625 15.054688L8.289062 15.054688C8.050781 15.054688 7.855469 15.25 7.855469 15.492188 7.855469 15.730469 8.050781 15.925781 8.289062 15.925781L12.65625 15.925781C12.894531 15.925781 13.089844 15.730469 13.089844 15.492188zM13.089844 15.492188"/>
</svg>

<svg xmlns="http://www.w3.org/2000/svg" width="32" height="32" viewBox="0 0 24 24">
    <path d="M20.945 20.727a.436.436 0 0 1-.871 0 .436.436 0 1 1 .871 0zm0 0M20.074 19.418a.437.437 0 1 1-.873.001.437.437 0 0 1 .873-.001zm0 0M19.2 18.11a.436.436 0 0 1-.871 0 .436.436 0 1 1 .87 0zm0 0M20.945 18.11a.436.436 0 0 1-.871 0 .436.436 0 1 1 .871 0zm0 0M18.328 16.8a.44.44 0 0 1-.437.438.437.437 0 1 1 .438-.438zm0 0M20.074 16.8a.44.44 0 0 1-.437.438.437.437 0 1 1 .438-.438zm0 0M17.453 15.492a.435.435 0 1 1-.87-.003.435.435 0 0 1 .87.003zm0 0M19.2 15.492a.436.436 0 1 1-.873-.005.436.436 0 0 1 .872.005zm0 0M21.816 22.035a.436.436 0 1 1-.872.003.436.436 0 0 1 .872-.003zm0 0M20.074 22.035a.437.437 0 1 1-.875 0c0-.238.196-.433.438-.433s.437.195.437.433zm0 0M19.2 20.727a.436.436 0 0 1-.871 0 .436.436 0 1 1 .87 0zm0 0M18.328 19.418a.437.437 0 1 1-.873.001.437.437 0 0 1 .873-.001zm0 0M17.453 18.11a.436.436 0 1 1-.871 0 .436.436 0 0 1 .871 0zm0 0M16.582 16.8a.44.44 0 0 1-.437.438.438.438 0 0 1 0-.875c.242 0 .437.196.437.438zm0 0M17.453 20.727a.436.436 0 1 1-.871 0 .436.436 0 0 1 .871 0zm0 0M16.582 19.418a.436.436 0 0 1-.871 0 .436.436 0 1 1 .871 0zm0 0M15.71 18.11a.437.437 0 1 1-.873 0 .437.437 0 0 1 .874 0zm0 0M18.328 22.035a.437.437 0 1 1-.875 0c0-.238.195-.433.438-.433.242 0 .437.195.437.433zm0 0M16.582 22.035a.436.436 0 1 1 0 0zm0 0M15.71 20.727a.437.437 0 1 1-.873.001.437.437 0 0 1 .874-.001zm0 0M14.836 19.418a.436.436 0 0 1-.871 0 .436.436 0 1 1 .87 0zm0 0M13.965 20.727a.437.437 0 1 1-.874.001.437.437 0 0 1 .874-.001zm0 0M14.836 22.035a.436.436 0 1 1 0 0zm0 0M13.09 22.035a.436.436 0 1 1-.872.003.436.436 0 0 1 .872-.003zm0 0"/>
    <path d="M23.29 19.938c-.442-.551-1.063-1.56-1.661-2.536-.629-1.023-1.223-1.992-1.68-2.554-.71-.88-1.582-1.414-2.496-1.52V.656A.436.436 0 0 0 17.02.22H3.492.438A.437.437 0 0 0 0 .656v20.07a.44.44 0 0 0 .266.403l3.043 1.308a.436.436 0 0 0 .171.036h6.762c.024.113.059.222.113.328.227.449.81.98 2.293.98h7.926c1.645 0 2.836-.508 3.258-1.398.344-.719.152-1.59-.543-2.445zM3.042 21.375l-2.172-.934V1.09h2.172zM3.93 1.09h12.652v12.262c-.117.02-.234.046-.348.082-.03.011-.062.023-.093.03-.086.032-.176.063-.262.098l-.129.063a3.843 3.843 0 0 0-.219.113c-.043.028-.09.055-.133.082-.07.043-.136.09-.203.137-.043.031-.086.063-.129.098-.066.05-.132.11-.195.164-.039.035-.082.07-.121.11-.066.066-.133.136-.2.206-.03.035-.066.07-.097.106a4.993 4.993 0 0 0-.277.351c-.395.543-.871 1.363-1.383 2.27l-.32.562a61.68 61.68 0 0 1-.59 1.04c-.403.702-.79 1.343-1.094 1.769-.008.008-.012.015-.016.023-.062.086-.117.172-.171.254l-.043.078c-.04.067-.075.137-.11.203-.011.028-.023.051-.035.079a2.143 2.143 0 0 0-.082.199c-.008.027-.02.05-.027.074a.344.344 0 0 1-.02.059H3.93zm8.718 21.82c-.8 0-1.355-.183-1.515-.504v-.004a.424.424 0 0 0 .047-.699.193.193 0 0 1 .015-.05c.008-.012.012-.024.02-.04.027-.058.058-.12.098-.183a3.977 3.977 0 0 1 .18-.285c.015-.02.03-.043.046-.063a.44.44 0 0 0 .242.082.437.437 0 0 0 .438-.437.427.427 0 0 0-.211-.364c.12-.195.242-.398.37-.613a.427.427 0 0 0 .278.105.436.436 0 0 0 .149-.843c.03-.063.07-.121.101-.184.09-.16.18-.316.27-.473a.426.426 0 0 0 .351.192.437.437 0 0 0 .438-.438c0-.23-.18-.414-.406-.43.144-.257.289-.511.43-.753a.431.431 0 0 0 .847-.125.437.437 0 0 0-.438-.438c-.03 0-.058.012-.085.02.195-.32.374-.606.535-.832a.433.433 0 0 0 .863-.059.44.44 0 0 0-.438-.437c-.007 0-.011.004-.015.004.117-.121.234-.235.36-.332a4.69 4.69 0 0 1 .245-.172c.008-.004.016-.012.024-.016a2.31 2.31 0 0 1 1.144-.355c.02 0 .04-.004.059-.004.773 0 1.547.43 2.183 1.215.418.52 1.024 1.507 1.614 2.464.25.41.508.825.754 1.215a.433.433 0 0 0-.258-.094.437.437 0 1 0 0 .875.436.436 0 0 0 .433-.437c0-.031-.011-.063-.015-.094.273.426.531.801.758 1.094a.428.428 0 0 0-.305-.129c-.238 0-.438.2-.438.438a.437.437 0 1 0 .875 0c0-.11-.046-.211-.113-.29.012.016.024.036.035.047.325.403.496.786.508 1.118a.428.428 0 1 0-.32.715c-.418.374-1.207.593-2.227.593zm0 0"/>
    <path d="M9.164 11.227a.437.437 0 0 0 .438-.438V9.195c0-.066-.008-.129-.012-.195l.137.137a.437.437 0 0 0 .308.125c.11 0 .223-.043.309-.125l.14-.145a1.72 1.72 0 0 0-.011.203v1.594c0 .242.195.438.437.438h1.594a2.772 2.772 0 0 0 2.77-2.766V6.863a.437.437 0 0 0-.438-.437h-1.598c-.36 0-.703.07-1.02.199a2.759 2.759 0 0 0-.75-2.531l-1.128-1.13a.434.434 0 0 0-.617 0l-1.13 1.13a2.762 2.762 0 0 0-.745 2.527 2.749 2.749 0 0 0-1.016-.195H5.238a.437.437 0 0 0-.437.437v1.598a2.77 2.77 0 0 0 2.765 2.766zM14.398 7.3v1.16a1.896 1.896 0 0 1-1.894 1.894h-1.16v-1.16c0-1.047.851-1.894 1.894-1.894zM9.211 4.71l.82-.82.82.82a1.898 1.898 0 0 1 0 2.68l-.82.82-.82-.82a1.898 1.898 0 0 1 0-2.68zM5.67 8.46V7.3h1.161c1.047 0 1.895.847 1.895 1.894v1.16h-1.16a1.899 1.899 0 0 1-1.895-1.894zm0 0M13.965 14.184a.437.437 0 0 0-.438-.438H6.98a.436.436 0 0 0 0 .871h6.547a.436.436 0 0 0 .438-.433zm0 0M8.29 12.438a.435.435 0 0 0 0 .87h4.366a.436.436 0 0 0 0-.87zm0 0M13.09 15.492a.436.436 0 0 0-.434-.437H8.29a.436.436 0 0 0 0 .87h4.367a.435.435 0 0 0 .434-.433zm0 0"/>
</svg>
